X:1
T:Ragtime Cowboy Joe(1912)
T:Ragtime Cowboy Joe
T:Lewis Muir,Maurice Abrahams
T:Grant Clarke
C:Lewis Muir, Maurice Abrahams
Z:All Rights Reserved
L:1/8
M:2/2
K:Bb
V:1 treble 
%%MIDI program 40
%%MIDI control 7 100
%%MIDI control 10 64
V:1
 z4 z3/2 F<"F7"GA/ |:"Bb" A6 B>A | B>AB>A B>AB>=B |"C7" c6 c>=B | c>=Bc>d c>_BG>^G |"F7" A6 A>^G | %6
w: He al- ways|sings rag- gy|mu- sic to the cat- tle, As he|swings back and|for- ward in the sad- dle, On a|horse that is|
 A>^GA>G A>F=G>A |"Bb" B>AB>c"D" d>c"Gm"B>d |"C7" c>dc>B"F7" G>FG>A |"Bb" B6 B>A | B>AB>A B>AB>=B | %11
w: syn- co- pa- ted gait- ed, And there's|such a fun- ny me- ter to the|roar of his re- peat- er! How they|run, when they|hear that fel- low's gun, Be- cause the|
"C7" c2 d2 c2 B2 | G4"D+" B3 A |"Gm" G>A"D+"B>A"Gm" G>A"D+"B>A |"G" (3GGA"D+" B>A"Gm" G>A"Ebm"B>c | %15
w: West- ern folks all|know He's a|high fa- lu- tin, scoot- in', shoot- in'|son of a gun, From Ar- i- zo- na,|
"Bb" d2"G7" d2"C7" d"F7" c2 B- |1"Bb" B2 z2 z3/2 F<"F7"GA/ :|2"Bb" B6 z2 |] %18
w: Rag- time cow- boy Joe|* He al- ways||

